# Welcome to Sonic Pi

live_loop :guit do
  with_fx :echo, mix: 0.8, phase: 0.25 do
    sample :guit_em9, rate: 0.25
  end
  #  sample :guit_em9, rate: -0.5
  #  sleep 8
  sleep 10
end

#live_loop :boom do
#  with_fx :reverb, room: 1 do
#    sample :bd_boom, amp: 10, rate: 1
#  end
#  sleep 8
#end