# Welcome to Sonic Pi

live_loop :flobble do
  sample :ambi_choir, rate: 0.1
  sleep 0.25
  sample :ambi_choir, rate: 1
  sleep 0.25
  #  sample :bd_haus, rate: 1
  sample :ambi_choir, rate: 3
  sleep 0.5
end